X:135
T: DIE BESTE ZEIT IM JAHR IST MEIN
N: F0257
O: Europa, Mitteleuropa, Deutschland
R: Jugend - Lied, Belehrung, religioes
M: 2/4
L: 1/16
K: F
c2 | d2d2B2B2 | c3BA2
c2 | B2G2A2F2 | G3AG4 |
c8- | c2cde2e2 | d2=B2c4 |
z2d2c2_B2 | A2d2c3B | A2
A2B2c2 | d2d2d4- | d4c4 | c8- | c2z4

@@@ Tune index: 5566
